public/avatar/hat/49.svg

<svg xmlns:xlink="http://www.w3.org/1999/xlink" height="92.9" width="100.7" xmlns="http://www.w3.org/2000/svg"><use height="58.4" transform="matrix(.9 0 0 .9 8.865 9.37)" width="57.4" xlink:href="#a"/><defs><g id="a" transform="translate(17.15 32.7)"><use height="24.8" transform="translate(.3 .9)" width="28.65" xlink:href="#b"/><use height="3.1" transform="translate(-10.15 -4)" width="4.65" xlink:href="#c"/><use height="3.1" transform="translate(29.55 -14)" width="4.65" xlink:href="#c"/></g><g id="b"><path d="m27.7 12.25-.5.1q.25.45 0 .95-.2.35-.65.25.05.35-.25.5l-.5.2.35.45q.2.5-.3.45l-1.65.1.3.65q1.1.45.05 1.1h-.35l-.55.45-1-.1-.3.25-.7.2.35.5v.15q1.1.5.1 1.15-.25.15-.45-.1l-.05-.1-.6.25-.35.15q-.8.55-1.9.7l-.5.6-.45-.1q-.6-.75.35-1l.05-.2-1.2.1q.2.75-.35 1.2.55.35-.25.9-.25.2-.45-.1l-.2-.45-.65-.2q-.1.6-.55 1l-1.45.1-.25-.05q-1 .2-2.05 0-.75-.1-1-.7-.65.65-1.4.35-.65-.25-.85-.95l-1 .15-.5.5-.45-.1q-.5-.6.05-.9-.4-.45-.3-1.05-1.15.65-1.95-.2-.45-.5-.15-1.05H2.1q-1.2-.1-.9-1 .5-1.25 1.65-2.65 3.85 3.45 9.3 2.8 5.45-.7 8.4-3.05 2.9-2.35 3.2-4.2 2.8.55 3.95 2M19.75 4.8l-1.25.95q-.5.15-.65-.2l-.3.4-.9.15q-.45.55-1.1.7.65.4-.2.95l-.45-.1q-.45-.55-.05-.8l-.2-.05-.5.2-.5.6q-.25.15-.45-.1l-.2-.45-.3-.4-2-.05q-1.2 0-1.2-1.1.05-.4.35-.5l-.8-.05-.6-.45q-.45-.8.1-1.6l1.2-1.4.3-.1q1.35 4.85 7 3.45l2.7-.05M6.55 7.45q.25 1.3 1.6 2.5 1.35 1.15 2.9 1.4l3.45-.55q-.3-.4.2-.6l1.5-.65q.35-.35.75-.55l.3-.3q.2-.45.7-.6l.75.1.7.1.65.65q.15.55-.4.65l.2.35q.25.85-.55.9.2 1.05-.95 1.35l-.5.25-.65.65q-.75.7-1.7.8l-.5.15-.7.35q.9.4-.05 1l-.45-.1-.2-.65-.05.05q-1.1.35-1.7-.35l-.5.35-1.55-.15-.35-.25-.6-.1-.45-.3q-.3-1-1.25-.85.35.35-.4.8l-.45-.1-.2-.5-.7.1h-.15l-.4.3-.45-.05q-.45-.6-.05-.85v-.1l-.15-.3q-.85-.3-1.55-.9-.4-.35-.4-.7l.4-.65q1.05-1.5 3.9-2.65m14.1 3.75q-.6-.75.35-1.05 1.1.5.1 1.15-.25.2-.45-.1m2.75 8q-.6-.75.35-1.05 1.1.5.1 1.15l-.45-.1M11.95 8.5q-.6-.75.35-1.05 1.1.5.1 1.15-.25.15-.45-.1m-2.3-.6q-.6-.75.35-1 1.1.45.1 1.1-.25.2-.45-.1m-4.25 7q-.6-.75.35-1 1.1.45.1 1.1l-.45-.1m-.25 8.05q-.6-.75.35-1.05 1.1.5.1 1.15-.25.2-.45-.1m1.65.1q-.6-.75.35-1 1.15.45.1 1.1l-.45-.1m10.25-.15q-.6-.75.35-1 1.15.45.1 1.1-.25.2-.45-.1m1.65-1.1q-.6-.75.35-1 1.1.45.1 1.1l-.45-.1" fill="#89742c" fill-rule="evenodd" transform="translate(-.3 -.9)"/><path d="M1.2 17.35q-.3.9.9 1h1.15q-.3.55.15 1.05.8.85 1.95.2-.1.6.3 1.05-.55.3-.05.9l.45.1.5-.5 1-.15q.2.7.85.95.75.3 1.4-.35.25.6 1 .7 1.05.2 2.05 0l.25.05 1.45-.1q.45-.4.55-1l.65.2.2.45q.2.3.45.1.8-.55.25-.9.55-.45.35-1.2l1.2-.1-.05.2q-.95.25-.35 1l.45.1.5-.6q1.1-.15 1.9-.7l.35-.15.6-.25.05.1q.2.25.45.1 1-.65-.1-1.15v-.15l-.35-.5.7-.2.3-.25 1 .1.55-.45h.35q1.05-.65-.05-1.1l-.3-.65 1.65-.1q.5.05.3-.45l-.35-.45.5-.2q.3-.15.25-.5.45.1.65-.25.25-.5 0-.95l.5-.1q.9 1.15.75 2.95-.45 3.9-4.8 6.45-4.35 2.55-9 3.25-4.75.65-7.95 0-3.25-.65-5.2-3.4-1.25-1.85-.3-4.15m22.55-7.1q-.3 1.85-3.2 4.2-2.95 2.35-8.4 3.05-5.45.65-9.3-2.8-1.4-2.2-.6-3.95 0 .35.4.7.7.6 1.55.9l.15.3v.1q-.4.25.05.85l.45.05.4-.3h.15l.7-.1.2.5.45.1q.75-.45.4-.8.95-.15 1.25.85l.45.3.6.1.35.25 1.55.15.5-.35q.6.7 1.7.35l.05-.05.2.65.45.1q.95-.6.05-1l.7-.35.5-.15q.95-.1 1.7-.8l.65-.65.5-.25q1.15-.3.95-1.35.8-.05.55-.9l-.2-.35q.55-.1.4-.65l-.65-.65-.7-.1-.75-.1q-.5.15-.7.6l-.3.3q-.4.2-.75.55l-1.5.65q-.5.2-.2.6l-3.45.55q-1.55-.25-2.9-1.4-1.35-1.2-1.6-2.5-.2-1 .1-2.05.85-3.05 3.1-3.9l-1.2 1.4q-.55.8-.1 1.6l.6.45.8.05q-.3.1-.35.5 0 1.1 1.2 1.1l2 .05.3.4.2.45q.2.25.45.1l.5-.6.5-.2.2.05q-.4.25.05.8l.45.1q.85-.55.2-.95.65-.15 1.1-.7l.9-.15.3-.4q.15.35.65.2l1.25-.95h.05l.4.1.25.1q1.1.5 2.05 1.55 1.65 1.95 1.25 3.7m-.35 8.95.45.1q1-.65-.1-1.15-.95.3-.35 1.05m-2.75-8q.2.3.45.1 1-.65-.1-1.15-.95.3-.35 1.05m-8.7-2.7q.2.25.45.1 1-.65-.1-1.15-.95.3-.35 1.05m6.75 13.3.45.1q1-.65-.1-1.1-.95.25-.35 1m-1.65 1.1q.2.3.45.1 1.05-.65-.1-1.1-.95.25-.35 1m-10.25.15.45.1q1.05-.65-.1-1.1-.95.25-.35 1m-1.65-.1q.2.3.45.1 1-.65-.1-1.15-.95.3-.35 1.05m.25-8.05.45.1q1-.65-.1-1.1-.95.25-.35 1m4.25-7q.2.3.45.1 1-.65-.1-1.1-.95.25-.35 1" fill="#645420" fill-rule="evenodd" transform="translate(-.3 -.9)"/><path d="M27.7 12.25q-1.15-1.45-3.95-2-.3 1.85-3.2 4.2-2.95 2.35-8.4 3.05-5.45.65-9.3-2.8-1.15 1.4-1.65 2.65-.95 2.3.3 4.15 1.95 2.75 5.2 3.4 3.2.65 7.95 0 4.65-.7 9-3.25t4.8-6.45q.15-1.8-.75-2.95m-3.95-2q.4-1.75-1.25-3.7Q21.55 5.5 20.45 5m-.25-.1-.4-.1h-.05l-2.7.05q-5.65 1.4-7-3.45l-.3.1q-2.25.85-3.1 3.9-.3 1.05-.1 2.05.25 1.3 1.6 2.5 1.35 1.15 2.9 1.4l3.45-.55m-12.25-.05q-.8 1.75.6 3.95m3.7-7.25Q3.7 8.6 2.65 10.1l-.4.65" fill="none" stroke="#600" stroke-linecap="round" stroke-linejoin="round" transform="translate(-.3 -.9)"/></g><path d="M-.15.15q-.65.65-2 .95-.85-2.7 2-.95 3.1-2.2 2.3.55Q1.3.9-.15.15" fill="#666" fill-rule="evenodd" transform="translate(2.35 .85)" id="d"/><use height="1.95" transform="translate(0 1.15)" width="4.65" xlink:href="#d" id="c"/></defs></svg>

<?xml version="1.0" encoding="UTF-8" standalone="no"?>
<svg xmlns:xlink="http://www.w3.org/1999/xlink" height="92.9px" width="100.7px" xmlns="http://www.w3.org/2000/svg">
  <g transform="matrix(1.0, 0.0, 0.0, 1.0, 38.65, 49.75)">
    <use height="58.4" transform="matrix(0.9, 0.0, 0.0, 0.9, -29.7849, -40.3798)" width="57.4" xlink:href="#sprite0"/>
  </g>
  <defs>
    <g id="sprite0" transform="matrix(1.0, 0.0, 0.0, 1.0, 17.15, 32.7)">
      <use height="24.8" transform="matrix(1.0, 0.0, 0.0, 1.0, 0.3, 0.9)" width="28.65" xlink:href="#shape0"/>
      <use height="3.1" transform="matrix(1.0, 0.0, 0.0, 1.0, -10.15, -4.0)" width="4.65" xlink:href="#sprite1"/>
      <use height="3.1" transform="matrix(1.0, 0.0, 0.0, 1.0, 29.55, -14.0)" width="4.65" xlink:href="#sprite1"/>
    </g>
    <g id="shape0" transform="matrix(1.0, 0.0, 0.0, 1.0, -0.3, -0.9)">
      <path d="M27.7 12.25 L27.2 12.35 Q27.45 12.8 27.2 13.3 27.0 13.65 26.55 13.55 26.6 13.9 26.3 14.05 L25.8 14.25 26.15 14.7 Q26.35 15.2 25.85 15.15 L24.2 15.25 24.5 15.9 Q25.6 16.35 24.55 17.0 L24.2 17.0 23.65 17.45 22.65 17.35 22.35 17.6 21.65 17.8 22.0 18.3 22.0 18.45 Q23.1 18.95 22.1 19.6 21.85 19.75 21.65 19.5 L21.6 19.4 21.0 19.65 20.65 19.8 Q19.85 20.35 18.75 20.5 L18.25 21.1 17.8 21.0 Q17.2 20.25 18.15 20.0 L18.2 19.8 17.0 19.9 Q17.2 20.65 16.65 21.1 17.2 21.45 16.4 22.0 16.15 22.2 15.95 21.9 L15.75 21.45 15.1 21.25 Q15.0 21.85 14.55 22.25 L13.1 22.35 12.85 22.3 Q11.85 22.5 10.8 22.3 10.05 22.2 9.8 21.6 9.15 22.25 8.4 21.95 7.75 21.7 7.55 21.0 L6.55 21.15 6.05 21.65 5.6 21.55 Q5.1 20.95 5.65 20.65 5.25 20.2 5.35 19.6 4.2 20.25 3.4 19.4 2.95 18.9 3.25 18.35 L2.1 18.35 Q0.9 18.25 1.2 17.35 1.7 16.1 2.85 14.7 6.7 18.15 12.15 17.5 17.6 16.8 20.55 14.45 23.45 12.1 23.75 10.25 26.55 10.8 27.7 12.25 M19.75 4.8 L18.5 5.75 Q18.0 5.9 17.85 5.55 L17.55 5.95 16.65 6.1 Q16.2 6.65 15.55 6.8 16.2 7.2 15.35 7.75 L14.9 7.65 Q14.45 7.1 14.85 6.85 L14.65 6.8 14.15 7.0 13.65 7.6 Q13.4 7.75 13.2 7.5 L13.0 7.05 12.7 6.65 10.7 6.6 Q9.5 6.6 9.5 5.5 9.55 5.1 9.85 5.0 L9.05 4.95 8.45 4.5 Q8.0 3.7 8.55 2.9 L9.75 1.5 10.05 1.4 Q11.4 6.25 17.05 4.85 L19.75 4.8 M6.55 7.45 Q6.8 8.75 8.15 9.95 9.5 11.1 11.05 11.35 L14.5 10.8 Q14.2 10.4 14.7 10.2 L16.2 9.55 Q16.55 9.2 16.95 9.0 L17.25 8.7 Q17.45 8.25 17.95 8.1 L18.7 8.2 19.4 8.3 20.05 8.95 Q20.2 9.5 19.65 9.6 L19.85 9.95 Q20.1 10.8 19.3 10.85 19.5 11.9 18.35 12.2 L17.85 12.45 17.2 13.1 Q16.45 13.8 15.5 13.9 L15.0 14.05 14.3 14.4 Q15.2 14.8 14.25 15.4 L13.8 15.3 13.6 14.65 13.55 14.7 Q12.45 15.05 11.85 14.35 L11.35 14.7 9.8 14.55 9.45 14.3 8.85 14.2 8.4 13.9 Q8.1 12.9 7.15 13.05 7.5 13.4 6.75 13.85 L6.3 13.75 6.1 13.25 5.4 13.35 5.25 13.35 4.85 13.65 4.4 13.6 Q3.95 13.0 4.35 12.75 L4.35 12.65 4.2 12.35 Q3.35 12.05 2.65 11.45 2.25 11.1 2.25 10.75 L2.65 10.1 Q3.7 8.6 6.55 7.45 M20.65 11.2 Q20.05 10.45 21.0 10.15 22.1 10.65 21.1 11.3 20.85 11.5 20.65 11.2 M23.4 19.2 Q22.8 18.45 23.75 18.15 24.85 18.65 23.85 19.3 L23.4 19.2 M11.95 8.5 Q11.35 7.75 12.3 7.45 13.4 7.95 12.4 8.6 12.15 8.75 11.95 8.5 M9.65 7.9 Q9.05 7.15 10.0 6.9 11.1 7.35 10.1 8.0 9.85 8.2 9.65 7.9 M5.4 14.9 Q4.8 14.15 5.75 13.9 6.85 14.35 5.85 15.0 L5.4 14.9 M5.15 22.95 Q4.55 22.2 5.5 21.9 6.6 22.4 5.6 23.05 5.35 23.25 5.15 22.95 M6.8 23.05 Q6.2 22.3 7.15 22.05 8.3 22.5 7.25 23.15 L6.8 23.05 M17.05 22.9 Q16.45 22.15 17.4 21.9 18.55 22.35 17.5 23.0 17.25 23.2 17.05 22.9 M18.7 21.8 Q18.1 21.05 19.05 20.8 20.15 21.25 19.15 21.9 L18.7 21.8" fill="#89742c" fill-rule="evenodd" stroke="none"/>
      <path d="M1.2 17.35 Q0.9 18.25 2.1 18.35 L3.25 18.35 Q2.95 18.9 3.4 19.4 4.2 20.25 5.35 19.6 5.25 20.2 5.65 20.65 5.1 20.95 5.6 21.55 L6.05 21.65 6.55 21.15 7.55 21.0 Q7.75 21.7 8.4 21.95 9.15 22.25 9.8 21.6 10.05 22.2 10.8 22.3 11.85 22.5 12.85 22.3 L13.1 22.35 14.55 22.25 Q15.0 21.85 15.1 21.25 L15.75 21.45 15.95 21.9 Q16.15 22.2 16.4 22.0 17.2 21.45 16.65 21.1 17.2 20.65 17.0 19.9 L18.2 19.8 18.15 20.0 Q17.2 20.25 17.8 21.0 L18.25 21.1 18.75 20.5 Q19.85 20.35 20.65 19.8 L21.0 19.65 21.6 19.4 21.65 19.5 Q21.85 19.75 22.1 19.6 23.1 18.95 22.0 18.45 L22.0 18.3 21.65 17.8 22.35 17.6 22.65 17.35 23.65 17.45 24.2 17.0 24.55 17.0 Q25.6 16.35 24.5 15.9 L24.2 15.25 25.85 15.15 Q26.35 15.2 26.15 14.7 L25.8 14.25 26.3 14.05 Q26.6 13.9 26.55 13.55 27.0 13.65 27.2 13.3 27.45 12.8 27.2 12.35 L27.7 12.25 Q28.6 13.4 28.45 15.2 28.0 19.1 23.65 21.65 19.3 24.2 14.65 24.9 9.9 25.55 6.7 24.9 3.45 24.25 1.5 21.5 0.25 19.65 1.2 17.35 M23.75 10.25 Q23.45 12.1 20.55 14.45 17.6 16.8 12.15 17.5 6.7 18.15 2.85 14.7 1.45 12.5 2.25 10.75 2.25 11.1 2.65 11.45 3.35 12.05 4.2 12.35 L4.35 12.65 4.35 12.75 Q3.95 13.0 4.4 13.6 L4.85 13.65 5.25 13.35 5.4 13.35 6.1 13.25 6.3 13.75 6.75 13.85 Q7.5 13.4 7.15 13.05 8.1 12.9 8.4 13.9 L8.85 14.2 9.45 14.3 9.8 14.55 11.35 14.7 11.85 14.35 Q12.45 15.05 13.55 14.7 L13.6 14.65 13.8 15.3 14.25 15.4 Q15.2 14.8 14.3 14.4 L15.0 14.05 15.5 13.9 Q16.45 13.8 17.2 13.1 L17.85 12.45 18.35 12.2 Q19.5 11.9 19.3 10.85 20.1 10.8 19.85 9.95 L19.65 9.6 Q20.2 9.5 20.05 8.95 L19.4 8.3 18.7 8.2 17.95 8.1 Q17.45 8.25 17.25 8.7 L16.95 9.0 Q16.55 9.2 16.2 9.55 L14.7 10.2 Q14.2 10.4 14.5 10.8 L11.05 11.35 Q9.5 11.1 8.15 9.95 6.8 8.75 6.55 7.45 6.35 6.45 6.65 5.4 7.5 2.35 9.75 1.5 L8.55 2.9 Q8.0 3.7 8.45 4.5 L9.05 4.95 9.85 5.0 Q9.55 5.1 9.5 5.5 9.5 6.6 10.7 6.6 L12.7 6.65 13.0 7.05 13.2 7.5 Q13.4 7.75 13.65 7.6 L14.15 7.0 14.65 6.8 14.85 6.85 Q14.45 7.1 14.9 7.65 L15.35 7.75 Q16.2 7.2 15.55 6.8 16.2 6.65 16.65 6.1 L17.55 5.95 17.85 5.55 Q18.0 5.9 18.5 5.75 L19.75 4.8 19.8 4.8 20.2 4.9 20.45 5.0 Q21.55 5.5 22.5 6.55 24.15 8.5 23.75 10.25 M23.4 19.2 L23.85 19.3 Q24.85 18.65 23.75 18.15 22.8 18.45 23.4 19.2 M20.65 11.2 Q20.85 11.5 21.1 11.3 22.1 10.65 21.0 10.15 20.05 10.45 20.65 11.2 M11.95 8.5 Q12.15 8.75 12.4 8.6 13.4 7.95 12.3 7.45 11.35 7.75 11.95 8.5 M18.7 21.8 L19.15 21.9 Q20.15 21.25 19.05 20.8 18.1 21.05 18.7 21.8 M17.05 22.9 Q17.25 23.2 17.5 23.0 18.55 22.35 17.4 21.9 16.45 22.15 17.05 22.9 M6.8 23.05 L7.25 23.15 Q8.3 22.5 7.15 22.05 6.2 22.3 6.8 23.05 M5.15 22.95 Q5.35 23.25 5.6 23.05 6.6 22.4 5.5 21.9 4.55 22.2 5.15 22.95 M5.4 14.9 L5.85 15.0 Q6.85 14.35 5.75 13.9 4.8 14.15 5.4 14.9 M9.65 7.9 Q9.85 8.2 10.1 8.0 11.1 7.35 10.0 6.9 9.05 7.15 9.65 7.9" fill="#645420" fill-rule="evenodd" stroke="none"/>
      <path d="M27.7 12.25 Q26.55 10.8 23.75 10.25 23.45 12.1 20.55 14.45 17.6 16.8 12.15 17.5 6.7 18.15 2.85 14.7 1.7 16.1 1.2 17.35 0.25 19.65 1.5 21.5 3.45 24.25 6.7 24.9 9.9 25.55 14.65 24.9 19.3 24.2 23.65 21.65 28.0 19.1 28.45 15.2 28.6 13.4 27.7 12.25 M23.75 10.25 Q24.15 8.5 22.5 6.55 21.55 5.5 20.45 5.0 M20.2 4.9 L19.8 4.8 19.75 4.8 17.05 4.85 Q11.4 6.25 10.05 1.4 L9.75 1.5 Q7.5 2.35 6.65 5.4 6.35 6.45 6.55 7.45 6.8 8.75 8.15 9.95 9.5 11.1 11.05 11.35 L14.5 10.8 M2.25 10.75 Q1.45 12.5 2.85 14.7 M6.55 7.45 Q3.7 8.6 2.65 10.1 L2.25 10.75" fill="none" stroke="#660000" stroke-linecap="round" stroke-linejoin="round" stroke-width="1.0"/>
    </g>
    <g id="sprite1" transform="matrix(1.0, 0.0, 0.0, 1.0, 2.35, 2.0)">
      <use height="1.95" transform="matrix(1.0, 0.0, 0.0, 1.0, -2.35, -0.85)" width="4.65" xlink:href="#shape1"/>
    </g>
    <g id="shape1" transform="matrix(1.0, 0.0, 0.0, 1.0, 2.35, 0.85)">
      <path d="M-0.15 0.15 Q-0.8 0.8 -2.15 1.1 -3.0 -1.6 -0.15 0.15 2.95 -2.05 2.15 0.7 1.3 0.9 -0.15 0.15" fill="#666666" fill-rule="evenodd" stroke="none"/>
    </g>
  </defs>
</svg>
